src/food-drink/dishware/1F37D.svg

<svg id="emoji" viewBox="0 0 72 72" xmlns="http://www.w3.org/2000/svg">
  <g id="grid">
    <path fill="#b3b3b3" d="M68,4V68H4V4H68m4-4H0V72H72V0Z"/>
    <path fill="none" stroke="#00a5ff" stroke-miterlimit="10" stroke-width="0.1" d="M12.923,10.9583H59.0769A1.9231,1.9231,0,0,1,61,12.8814V59.0352a1.9231,1.9231,0,0,1-1.9231,1.9231H12.9231A1.9231,1.9231,0,0,1,11,59.0352V12.8813A1.923,1.923,0,0,1,12.923,10.9583Z"/>
    <rect x="16" y="4" rx="2.2537" width="40" height="64" fill="none" stroke="#00a5ff" stroke-miterlimit="10" stroke-width="0.1"/>
    <rect x="16" y="4" rx="2.2537" width="40" height="64" transform="translate(72) rotate(90)" fill="none" stroke="#00a5ff" stroke-miterlimit="10" stroke-width="0.1"/>
    <circle cx="36" cy="36" r="29" fill="none" stroke="#00a5ff" stroke-miterlimit="10" stroke-width="0.1"/>
  </g>
  <g id="color">
    <path fill="#D0CFCE" stroke="none" stroke-miterlimit="10" stroke-width="2" d="M66.1204,26.2961 C66.1204,20.353,61,14.1351,61,16s0.9471,26.6324,0.9471,26.6324L61,58.8287c0,1.1046,0.8954,2,2,2s2-0.8954,2-2l-0.5289-16.2893 C64.4711,42.5394,66.1204,32.2392,66.1204,26.2961z"/>
    <path fill="#D0CFCE" stroke="none" stroke-linecap="round" stroke-linejoin="round" stroke-miterlimit="10" stroke-width="2" d="M11.4211,16.7398c0,0,0.1115,4.158,0.1115,8.1058c0,2.9609-0.8993,4.8203-2.1809,5.565l0,0l0.0285,28.4181c0,1.1046-0.8954,2-2,2 s-2-0.8954-2-2L6.191,30.4165l0,0C4.904,29.6757,4,27.8142,4,24.8456c0-3.9478,0.1115-8.1058,0.1115-8.1058"/>
    <line x1="7.7663" x2="7.7663" y1="16.7398" y2="26.3247" fill="#D0CFCE" stroke="none" stroke-linecap="round" stroke-linejoin="round" stroke-miterlimit="10" stroke-width="2"/>
    <circle cx="36" cy="35.9583" r="19.9583" fill="#D0CFCE" stroke="none" stroke-linecap="round" stroke-linejoin="round" stroke-miterlimit="10" stroke-width="2"/>
    <circle cx="36.0042" cy="36" r="12.1495" fill="#D0CFCE" stroke="none" stroke-linecap="round" stroke-linejoin="round" stroke-miterlimit="10" stroke-width="2"/>
  </g>
  <g id="hair"/>
  <g id="skin"/>
  <g id="skin-shadow"/>
  <g id="line">
    <path fill="none" stroke="#000000" stroke-miterlimit="10" stroke-width="2" d="M66.1204,26.2961 C66.1204,20.353,61,14.1351,61,16s0.9471,26.6324,0.9471,26.6324L61,58.8287c0,1.1046,0.8954,2,2,2s2-0.8954,2-2l-0.5289-16.2893 C64.4711,42.5394,66.1204,32.2392,66.1204,26.2961z"/>
    <path fill="none" stroke="#000000" stroke-linecap="round" stroke-linejoin="round" stroke-miterlimit="10" stroke-width="2" d="M11.4211,16.7398c0,0,0.1115,4.158,0.1115,8.1058c0,2.9609-0.8993,4.8203-2.1809,5.565l0,0l0.0285,28.4181c0,1.1046-0.8954,2-2,2 s-2-0.8954-2-2L6.191,30.4165l0,0C4.904,29.6757,4,27.8142,4,24.8456c0-3.9478,0.1115-8.1058,0.1115-8.1058"/>
    <line x1="7.7663" x2="7.7663" y1="16.7398" y2="26.3247" fill="none" stroke="#000000" stroke-linecap="round" stroke-linejoin="round" stroke-miterlimit="10" stroke-width="2"/>
    <circle cx="36" cy="35.9583" r="19.9583" fill="none" stroke="#000000" stroke-linecap="round" stroke-linejoin="round" stroke-miterlimit="10" stroke-width="2"/>
    <circle cx="36.0042" cy="36" r="12.1495" fill="none" stroke="#000000" stroke-linecap="round" stroke-linejoin="round" stroke-miterlimit="10" stroke-width="2"/>
  </g>
</svg>

<svg viewBox="0 0 72 72" xmlns="http://www.w3.org/2000/svg"><path fill="#b3b3b3" d="M68 4v64H4V4h64m4-4H0v72h72V0z"/><path fill="none" stroke="#00a5ff" stroke-miterlimit="10" stroke-width=".1" d="M12.923 10.958h46.154A1.923 1.923 0 0161 12.881v46.154a1.923 1.923 0 01-1.923 1.923H12.923A1.923 1.923 0 0111 59.035V12.881a1.923 1.923 0 011.923-1.923z"/><rect x="16" y="4" rx="2.254" width="40" height="64" fill="none" stroke="#00a5ff" stroke-miterlimit="10" stroke-width=".1"/><rect x="16" y="4" rx="2.254" width="40" height="64" transform="rotate(90 36 36)" fill="none" stroke="#00a5ff" stroke-miterlimit="10" stroke-width=".1"/><circle cx="36" cy="36" r="29" fill="none" stroke="#00a5ff" stroke-miterlimit="10" stroke-width=".1"/><g stroke-linecap="round" stroke-miterlimit="10" stroke-width="6" stroke="#fff" fill="none" stroke-linejoin="round"><path d="M66.12 26.296C66.12 20.353 61 14.136 61 16s.947 26.632.947 26.632L61 58.83a2 2 0 104 0l-.529-16.29s1.65-10.3 1.65-16.243zM11.421 16.74s.112 4.158.112 8.106c0 2.96-.9 4.82-2.181 5.565h0l.028 28.418a2 2 0 11-4 0l.811-28.413h0C4.904 29.677 4 27.814 4 24.846c0-3.948.112-8.106.112-8.106m3.654 0v9.585"/><circle cx="36" cy="35.958" r="19.958"/><circle cx="36.004" cy="36" r="12.149"/></g><g fill="#D0CFCE"><path d="M66.12 26.296C66.12 20.353 61 14.136 61 16s.947 26.632.947 26.632L61 58.83a2 2 0 104 0l-.529-16.29s1.65-10.3 1.65-16.243zM11.421 16.74s.112 4.158.112 8.106c0 2.96-.9 4.82-2.181 5.565l.028 28.418a2 2 0 11-4 0l.811-28.413C4.904 29.677 4 27.814 4 24.846c0-3.948.112-8.106.112-8.106m3.654 0v9.585"/><circle cx="36" cy="35.958" r="19.958"/><circle cx="36.004" cy="36" r="12.149"/></g><g fill="none" stroke="#000" stroke-miterlimit="10" stroke-width="2"><path d="M66.12 26.296C66.12 20.353 61 14.136 61 16s.947 26.632.947 26.632L61 58.83a2 2 0 104 0l-.529-16.29s1.65-10.3 1.65-16.243z"/><path stroke-linecap="round" stroke-linejoin="round" d="M11.421 16.74s.112 4.158.112 8.106c0 2.96-.9 4.82-2.181 5.565h0l.028 28.418a2 2 0 11-4 0l.811-28.413h0C4.904 29.677 4 27.814 4 24.846c0-3.948.112-8.106.112-8.106m3.654 0v9.585"/><circle cx="36" cy="35.958" r="19.958" stroke-linecap="round" stroke-linejoin="round"/><circle cx="36.004" cy="36" r="12.149" stroke-linecap="round" stroke-linejoin="round"/></g></svg>
